public/logos/coca-cola.svg

<svg width="638" height="200" viewBox="0 0 638 200" fill="none" xmlns="http://www.w3.org/2000/svg">
<path d="M446.674 15.3577C446.674 15.3577 434.721 20.1158 420.82 35.437C406.919 50.7582 398.823 67.9868 404.815 72.5686C407.116 74.3101 412.424 74.6418 422.054 65.9343C430.941 58.2179 437.918 48.5449 442.434 37.6761C448.654 22.5103 446.674 15.5443 446.674 15.3784M522.751 42.9213C507.305 35.0016 496.017 25.2988 484.272 19.2968C473.066 13.5436 465.82 11.1386 456.76 12.3515C455.496 12.5768 454.249 12.8885 453.028 13.2844C453.028 13.2844 457.693 29.2173 439.127 55.9827C420.323 83.1214 403.26 82.9348 398.409 75.4815C393.329 67.6136 399.891 51.5771 410.848 37.3029C422.324 22.3756 442.475 9.99837 442.475 9.99837C442.475 9.99837 436.048 6.06958 420.271 15.0156C404.877 23.7025 378.381 44.4348 353.793 79.3999C329.204 114.365 324.332 133.605 320.808 148.75C317.283 163.895 320.486 180.118 337.279 180.118C354.073 180.118 373.623 154.503 379.138 145.598C389.39 129.012 396.076 103.574 382.123 107.067C375.251 108.788 369.684 116.397 366.17 123.726C363.951 128.433 362.255 133.369 361.111 138.446C356.236 140.455 351.657 143.12 347.5 146.365C342.877 149.79 338.556 153.605 334.584 157.768C334.584 157.768 334.646 145.661 344.297 126.068C353.948 106.476 371.664 97.5304 381.698 96.6907C390.738 95.9651 402.503 103.636 392.531 131.936C382.559 160.235 353.14 194.641 322.238 195.066C293.721 195.46 275.062 159.064 314.754 95.5504C358.686 25.3818 410.216 3.85122 426.947 1.45664C443.678 -0.93795 449.12 6.44277 449.12 6.44277C459.192 2.31086 470.069 0.517436 480.934 1.19748C501.366 2.57618 517.164 17.037 538.02 27.1959C532.599 32.3789 527.426 37.8212 522.761 42.9213M614.544 19.2968C600.383 28.3776 580.791 36.6083 561.966 34.8461C557.198 39.77 552.098 45.4714 546.987 51.6911C579.63 58.1493 608.231 37.9248 623.438 20.7066C628.982 14.516 633.744 7.66803 637.619 0.316358C630.695 7.52755 622.947 13.8983 614.533 19.2968M571.068 111.266C571.315 110.835 571.517 110.38 571.669 109.908C571.572 109.16 571.222 108.468 570.677 107.948C570.132 107.427 569.424 107.109 568.673 107.047C565.563 106.901 561.324 107.492 550.201 119.807C540.973 129.977 533.032 141.243 526.555 153.352C520.191 164.983 517.609 173.649 521.269 175.888C522.458 176.504 523.836 176.645 525.125 176.282C527.602 175.691 530.412 173.369 534.683 168.425C536.683 166.103 538.902 162.817 541.555 159.178C548.915 149.164 567.409 117.641 571.068 111.266ZM455.526 124.659C457.382 119.807 459.745 110.281 454.832 106.539C449.555 102.568 436.1 111.888 436.028 121.445C435.934 131.231 445.502 135.657 447.793 136.279C449.099 136.632 449.555 136.58 450.188 135.533C452.217 132.036 454.001 128.403 455.526 124.659ZM445.347 142.457C442.012 140.918 438.902 138.934 436.1 136.559C433.291 134.202 430.943 131.345 429.176 128.131C428.989 127.82 428.802 128.059 428.595 128.339C428.388 128.619 427.558 129.375 420.385 139.887C413.212 150.398 402.192 172.177 412.165 175.888C418.55 178.262 429.176 167.077 434.97 159.665C438.918 154.492 442.497 149.046 445.679 143.37C445.979 142.737 445.678 142.592 445.357 142.457M558.473 167.616C555.767 171.949 552.678 180.263 561.583 175.09C572.478 168.798 587.996 145.256 587.996 145.256H595.034C588.63 155.104 581.499 164.459 573.701 173.245C562.661 185.477 549.195 196.59 539.71 195.491C528.629 194.195 532.101 179.651 532.101 179.651C532.101 179.651 516.251 196.527 505.284 195.315C490.471 193.677 494.99 175.37 494.99 175.37C494.99 175.37 478.239 195.926 466.826 195.294C448.933 194.257 453.432 172.488 458.408 157.157C461.072 148.957 463.539 142.52 463.539 142.52C463.539 142.52 461.767 142.986 457.952 143.556C455.962 143.836 452.334 144.043 452.334 144.043C452.334 144.043 444.88 157.188 438.92 165.087C432.959 172.986 407.624 200.218 392.718 194.765C378.931 189.727 383.492 168.622 391.515 151.849C403.229 127.395 436.173 92.2643 455.174 96.9084C474.87 101.687 455.62 137.627 455.62 137.627C455.62 137.627 455.62 137.761 455.827 137.855C456.221 138 457.247 138.114 459.621 137.647C462.081 137.146 464.492 136.428 466.826 135.502C466.826 135.502 486.625 94.037 508.498 66.9087C530.37 39.7804 574.001 -6.93997 591.126 4.35917C595.273 7.1373 593.407 16.7053 587.768 28.3154C585.228 29.1404 582.647 29.8325 580.035 30.3886C583.808 23.5366 586.306 17.7626 587.052 13.7302C589.634 -0.284882 556.908 29.2795 533.521 61.0414C519.435 80.1893 506.92 100.445 496.1 121.611C500.324 119.034 504.357 116.156 508.166 112.997C518.597 104.347 528.511 95.0916 537.855 85.2775C546.852 76.0661 555.291 66.3252 563.127 56.1071C565.617 55.9867 568.098 55.7306 570.56 55.34C562.016 66.9359 552.7 77.9421 542.675 88.2837C533.345 97.717 523.249 107.865 514.479 115.236C506.646 121.897 498.383 128.037 489.745 133.615C489.745 133.615 469.293 174.862 480.416 177.505C486.957 179.081 499.873 159.188 499.873 159.188C499.873 159.188 516.728 133.47 526.887 121.87C540.747 106.114 552.678 96.9913 564.599 96.8255C571.545 96.7011 575.639 104.082 575.639 104.082L578.905 99.0231H599.015C599.015 99.0231 561.458 162.754 558.452 167.554M614.533 19.2968C600.373 28.3776 580.781 36.6083 561.956 34.8461C557.188 39.77 552.087 45.4714 546.977 51.6911C579.62 58.1493 608.22 37.9248 623.427 20.7066C628.975 14.5166 633.741 7.66858 637.619 0.316358C630.695 7.52755 622.947 13.8983 614.533 19.2968ZM332.107 50.5612H312.981L302.169 68.0282H321.295L332.107 50.5612ZM241.548 111.048C249.685 99.8938 272.138 60.803 272.138 60.803C272.044 60.0563 271.695 59.3648 271.152 58.844C270.609 58.3232 269.903 58.0048 269.153 57.9419C266.043 57.7968 260.86 58.8438 250.566 71.7289C240.273 84.6141 232.28 94.8663 226.455 105.533C220.069 117.174 217.281 125.384 220.95 127.613C222.141 128.21 223.509 128.35 224.796 128.007C227.18 127.406 230.3 125.011 234.582 120.087C236.593 117.786 238.873 114.686 241.548 111.048ZM138.923 58.1804C133.636 54.1894 120.191 63.5293 120.118 73.0662C120.035 82.8622 132.216 85.858 133.791 85.9306C134.255 85.9691 134.719 85.8719 135.129 85.6507C135.41 85.4868 135.634 85.2408 135.771 84.9458C137.203 82.1317 138.49 79.2461 139.628 76.3004C141.483 71.4491 143.836 61.9225 138.923 58.1804ZM130.951 91.9015C127.306 90.7627 123.822 89.1601 120.585 87.1331C117.448 85.0882 114.897 82.2624 113.183 78.9334C112.997 78.6225 112.789 78.8609 112.603 79.1408C112.416 79.4206 111.338 80.7682 104.144 91.321C96.95 101.874 86.2935 123.456 96.2762 127.167C102.641 129.583 113.391 118.304 119.227 110.923C123.594 105.123 127.63 99.0805 131.314 92.8241C131.552 92.1918 131.314 92.0467 130.961 91.9326M287.159 98.4011H294.166C294.166 98.4011 259.056 149.195 239.226 146.832C228.155 145.536 231.441 131.873 231.441 131.873C231.441 131.873 215.891 150.077 201.607 146.386C188.649 143.059 197.015 121.507 197.015 121.507C195.543 122.098 167.502 153.705 147.796 146.127C127.178 138.166 137.886 111.701 141.804 103.74C145.132 97.0328 148.812 90.5021 148.812 90.5021C148.812 90.5021 145.65 91.3936 143.629 91.8497C141.607 92.3058 138.684 92.8863 138.684 92.8863C138.684 92.8863 128.93 108.736 122.969 116.646C117.009 124.555 91.6736 151.735 76.7463 146.324C61.819 140.913 65.5197 120.025 73.906 103.439C87.5064 76.5388 119.776 43.4811 139.213 48.4983C158.846 53.5052 142.592 85.3501 142.592 85.3501C142.592 85.3501 146.5 85.858 155.861 79.4725C169.337 70.2777 187.125 45.544 206.386 48.4465C215.466 49.8149 223.925 59.0926 212.357 76.7151C208.666 82.375 202.478 87.4337 197.74 82.4268C194.786 79.317 197.367 73.6467 200.467 69.7697C201.673 68.1893 203.249 66.9297 205.057 66.1018C206.865 65.2739 208.848 64.9031 210.833 65.022C210.833 65.022 214.015 57.7657 205.919 57.8694C199.368 57.9938 182.782 73.2631 173.421 88.688C164.838 102.848 151.829 126.97 164.89 132.226C176.863 137.057 199.648 110.011 210.2 95.8407C220.753 81.6701 244.803 49.5557 264.975 48.2703C271.921 47.8142 276.057 54.1479 276.057 54.1479L278.389 50.4576H298.562C298.562 50.4576 260.57 113.857 257.605 118.657C255.273 122.409 252.173 130.847 260.715 126.12C269.257 121.393 287.159 98.4011 287.159 98.4011ZM276.181 199.99C261.328 189.708 243.542 184.518 225.491 185.197C220.605 185.33 215.819 186.613 211.521 188.942C207.224 191.271 203.536 194.58 200.757 198.601C193.065 185.176 177.858 176.935 154.348 177.122C116.355 177.557 78.6744 195.076 48.8198 195.055C20.2092 195.055 -0.657941 177.07 0.0158606 145.132C1.27017 89.0819 48.6332 38.609 83.9819 15.8967C104.362 2.8457 121.404 -1.03125 132.547 0.223062C140.675 1.12492 150.45 10.5167 144.282 24.3555C135.222 44.5799 122.71 42.9213 123.176 33.2497C123.436 26.9574 127.623 22.9976 130.775 20.8103C132.775 19.4316 136.31 19.0377 138.156 18.9962C139.949 17.4827 141.265 6.41167 126.753 10.0502C112.24 13.6887 94.6176 27.9941 77.8866 46.4769C61.1556 64.9598 35.1054 99.8939 28.668 136.58C25.6618 153.591 27.6314 184.617 67.9661 184.264C102.175 183.984 152.596 161.459 198.932 161.925C216.918 162.101 232.571 166.953 244.772 174.478C256.755 181.859 271.122 192.64 276.223 200" fill="white"/>
</svg>

<svg xmlns="http://www.w3.org/2000/svg" width="638" height="200" fill="none"><path fill="#fff" d="M446.674 15.358s-11.953 4.758-25.854 20.079-21.997 32.55-16.005 37.132c2.301 1.741 7.609 2.073 17.239-6.635a76.1 76.1 0 0 0 20.38-28.258c6.22-15.166 4.24-22.132 4.24-22.298m76.077 27.543c-15.446-7.92-26.734-17.622-38.479-23.624-11.206-5.753-18.452-8.158-27.512-6.946a28 28 0 0 0-3.732.933s4.665 15.933-13.901 42.699c-18.804 27.138-35.867 26.952-40.718 19.499-5.08-7.868 1.482-23.905 12.439-38.18 11.476-14.926 31.627-27.304 31.627-27.304s-6.427-3.928-22.204 5.018c-15.394 8.687-41.89 29.419-66.478 64.384-24.589 34.965-29.461 54.205-32.985 69.35s-.322 31.368 16.471 31.368c16.794 0 36.344-25.615 41.859-34.52 10.252-16.586 16.938-42.024 2.985-38.531-6.872 1.721-12.439 9.33-15.953 16.659a71.3 71.3 0 0 0-5.059 14.72 58 58 0 0 0-13.611 7.919 101 101 0 0 0-12.916 11.403s.062-12.107 9.713-31.7c9.651-19.592 27.367-28.538 37.401-29.377 9.04-.726 20.805 6.945 10.833 35.245s-39.391 62.705-70.293 63.13c-28.517.394-47.176-36.002-7.484-99.516 43.932-70.168 95.462-91.699 112.193-94.093s22.173 4.986 22.173 4.986a72 72 0 0 1 31.814-5.246c20.432 1.38 36.23 15.84 57.086 25.999-5.421 5.183-10.594 10.625-15.259 15.725m91.783-23.624c-14.161 9.08-33.753 17.311-52.578 15.55-4.768 4.923-9.868 10.624-14.979 16.844 32.643 6.458 61.244-13.766 76.451-30.984A101.5 101.5 0 0 0 637.619.317a127.3 127.3 0 0 1-23.086 18.98m-43.465 91.969q.372-.648.601-1.358a3.294 3.294 0 0 0-2.996-2.861c-3.11-.146-7.349.445-18.472 12.76a167.5 167.5 0 0 0-23.646 33.545c-6.364 11.631-8.946 20.297-5.286 22.536a5.27 5.27 0 0 0 3.856.394c2.477-.591 5.287-2.913 9.558-7.857 2-2.322 4.219-5.608 6.872-9.247 7.36-10.014 25.854-41.537 29.513-47.912m-115.542 13.393c1.856-4.852 4.219-14.378-.694-18.12-5.277-3.971-18.732 5.349-18.804 14.906-.094 9.786 9.474 14.212 11.765 14.834 1.306.353 1.762.301 2.395-.746a87 87 0 0 0 5.338-10.874m-10.179 17.798a40.6 40.6 0 0 1-9.247-5.898 29.7 29.7 0 0 1-6.924-8.428c-.187-.311-.374-.072-.581.208s-1.037 1.036-8.21 11.548c-7.173 10.511-18.193 32.29-8.22 36.001 6.385 2.374 17.011-8.811 22.805-16.223a138.5 138.5 0 0 0 10.709-16.295c.3-.633-.001-.778-.322-.913m113.116 25.159c-2.706 4.333-5.795 12.647 3.11 7.474 10.895-6.292 26.413-29.834 26.413-29.834h7.038a236 236 0 0 1-21.333 27.989c-11.04 12.232-24.506 23.345-33.991 22.246-11.081-1.296-7.609-15.84-7.609-15.84s-15.85 16.876-26.817 15.664c-14.813-1.638-10.294-19.945-10.294-19.945s-16.751 20.556-28.164 19.924c-17.893-1.037-13.394-22.806-8.418-38.137 2.664-8.2 5.131-14.637 5.131-14.637s-1.772.466-5.587 1.036c-1.99.28-5.618.487-5.618.487s-7.454 13.145-13.414 21.044c-5.961 7.899-31.296 35.131-46.202 29.678-13.787-5.038-9.226-26.143-1.203-42.916 11.714-24.454 44.658-59.585 63.659-54.94 19.696 4.778.446 40.718.446 40.718s0 .134.207.228c.394.145 1.42.259 3.794-.208a42.6 42.6 0 0 0 7.205-2.145s19.799-41.465 41.672-68.593C530.37 39.78 574.001-6.94 591.126 4.359c4.147 2.778 2.281 12.346-3.358 23.956a77 77 0 0 1-7.733 2.074c3.773-6.852 6.271-12.626 7.017-16.659 2.582-14.015-30.144 15.55-53.531 47.311a441 441 0 0 0-37.421 60.57 103 103 0 0 0 12.066-8.614 346 346 0 0 0 29.689-27.72 323 323 0 0 0 25.272-29.17c2.49-.12 4.971-.376 7.433-.767a320 320 0 0 1-27.885 32.944c-9.33 9.433-19.426 19.581-28.196 26.952a235 235 0 0 1-24.734 18.379s-20.452 41.247-9.329 43.89c6.541 1.576 19.457-18.317 19.457-18.317s16.855-25.718 27.014-37.318c13.86-15.756 25.791-24.879 37.712-25.044 6.946-.125 11.04 7.256 11.04 7.256l3.266-5.059h20.11s-37.557 63.731-40.563 68.531m56.081-148.257c-14.16 9.08-33.752 17.311-52.577 15.55-4.768 4.923-9.869 10.624-14.979 16.844 32.643 6.458 61.243-13.766 76.45-30.984A101.5 101.5 0 0 0 637.619.317a127.3 127.3 0 0 1-23.086 18.98M332.107 50.56h-19.126l-10.812 17.467h19.126zm-90.559 60.487c8.137-11.154 30.59-50.245 30.59-50.245a3.284 3.284 0 0 0-2.985-2.861c-3.11-.145-8.293.902-18.587 13.787-10.293 12.885-18.286 23.137-24.111 33.804-6.386 11.641-9.174 19.851-5.505 22.08a5.45 5.45 0 0 0 3.846.394c2.384-.601 5.504-2.996 9.786-7.92 2.011-2.301 4.291-5.401 6.966-9.039M138.923 58.18c-5.287-3.99-18.732 5.35-18.805 14.886-.083 9.796 12.098 12.792 13.673 12.865.464.038.928-.06 1.338-.28.281-.164.505-.41.642-.705a93 93 0 0 0 3.857-8.646c1.855-4.85 4.208-14.377-.705-18.12m-7.972 33.722a44.6 44.6 0 0 1-10.366-4.769 21.6 21.6 0 0 1-7.402-8.2c-.186-.31-.394-.072-.58.208-.187.28-1.265 1.627-8.459 12.18s-17.85 32.135-7.868 35.846c6.365 2.416 17.115-8.863 22.951-16.244a192 192 0 0 0 12.087-18.099c.238-.632 0-.777-.353-.891M287.159 98.4h7.007s-35.11 50.794-54.94 48.431c-11.071-1.296-7.785-14.959-7.785-14.959s-15.55 18.204-29.834 14.513c-12.958-3.327-4.592-24.879-4.592-24.879-1.472.591-29.513 32.198-49.219 24.62-20.618-7.961-9.91-34.426-5.992-42.387 3.328-6.707 7.008-13.238 7.008-13.238s-3.162.892-5.183 1.348-4.945 1.036-4.945 1.036-9.754 15.85-15.715 23.76c-5.96 7.909-31.295 35.089-46.223 29.678s-11.226-26.299-2.84-42.885c13.6-26.9 45.87-59.958 65.307-54.94 19.633 5.006 3.379 36.851 3.379 36.851s3.908.508 13.269-5.877c13.476-9.195 31.264-33.929 50.525-31.026 9.08 1.368 17.539 10.646 5.971 28.268-3.691 5.66-9.879 10.719-14.617 5.712-2.954-3.11-.373-8.78 2.727-12.657a12.12 12.12 0 0 1 10.366-4.748s3.182-7.256-4.914-7.153c-6.551.125-23.137 15.394-32.498 30.819-8.583 14.16-21.592 38.282-8.531 43.538 11.973 4.831 34.758-22.215 45.31-36.385 10.553-14.17 34.603-46.285 54.775-47.57 6.946-.457 11.082 5.877 11.082 5.877l2.332-3.69h20.173s-37.992 63.399-40.957 68.199c-2.332 3.752-5.432 12.19 3.11 7.463s26.444-27.719 26.444-27.719M276.181 199.99a83.54 83.54 0 0 0-50.69-14.793 31.1 31.1 0 0 0-24.734 13.404c-7.692-13.425-22.899-21.666-46.409-21.479-37.993.435-75.674 17.954-105.528 17.933-28.61 0-49.478-17.985-48.804-49.923C1.27 89.082 48.633 38.609 83.982 15.897 104.362 2.846 121.404-1.031 132.547.223c8.128.902 17.903 10.294 11.735 24.133-9.06 20.224-21.572 18.565-21.106 8.894.26-6.293 4.447-10.252 7.599-12.44 2-1.378 5.535-1.772 7.381-1.814 1.793-1.513 3.109-12.584-11.403-8.946S94.618 27.994 77.887 46.477 35.105 99.894 28.668 136.58c-3.006 17.011-1.037 48.037 39.298 47.684 34.209-.28 84.63-22.805 130.966-22.339 17.986.176 33.639 5.028 45.84 12.553 11.983 7.381 26.35 18.162 31.451 25.522"/></svg>
